X:13
T:Saddle the Pony
T:Priests Leap, The
R:jig
Z:7th bar of both parts also played |age dBA|
Z:id:hn-jig-13
M:6/8
K:G
GBA G2B|def gdB|GBA G2B|AFD AFD|GBA G2B|def gfg|ege dBA|1 BGG G2D:|2 BGG GBd||
|:efe edB|def gfg|efe edB|dBA ABd|efe edB|def gfg|ege dBA|1 BGG GBd:|2 BGG G2D||
<end>
<start>
